src/main/resources/icons/AllIcons/welcome/createNewProjectTab_dark.svg

<svg width="24" height="24" viewBox="0 0 24 24" fill="none" xmlns="http://www.w3.org/2000/svg"><rect id="frame" width="24" height="24" fill="none"/><path fill-rule="evenodd" clip-rule="evenodd" d="M14 2h-4v8H2v4h8v8h4v-8h8v-4h-8V2z" fill="#CCE2FF"/></svg>

<!-- Copyright 2000-2021 JetBrains s.r.o. Use of this source code is governed by the Apache 2.0 license that can be found in the LICENSE file. -->
<svg width="24" height="24" viewBox="0 0 24 24" fill="none" xmlns="http://www.w3.org/2000/svg">
<path fill-rule="evenodd" clip-rule="evenodd" d="M14 2H10V10H2V14H10V22H14V14H22V10H14V2Z" fill="#CCE2FF"/>
</svg>
